X:1
T:Title
%%score { ( 1 4 ) | ( 2 3 ) }
L:1/8
M:4/4
K:Ab
V:1 treble nm="Grand Piano"
V:4 treble 
V:2 bass 
V:3 bass 
V:1
 z4 z2[Q:1/4=100] [CE]2 | [CA]>[CA] [CA]>[CA] [CA]>[Ec] [EB]>[EA] | B4 B2 E2 | B>B B>B B>d c>B | %4
 [Ec]6 c>d | e>e e>e e>[Ec] [EB]>[EA] |[M:3/4] [Fd]4 [DF]2 |[M:1/4] [Fd]2 | %8
[M:4/4] c>c c>A B>B A>G |[M:3/4] [CEA]6 |[M:4/4] c6 z2 | z4 B4 | d6 z2 | d>c c>_c z2 (3GA_c | %14
 e6 z2 |[M:3/4] [FB]>F F>F F2 |[M:1/4] [Fd]2 |[M:4/4] c>c c>A B>B A>G |[M:7/4] [CEA]6 z2 z2 z4 |] %19
V:2
 z4 z2 [A,,A,]2 | [A,,E,]>[A,,E,] [A,,E,]>[A,,E,] [A,,E,]>[A,,A,] [B,,G,]>[C,A,] | %2
 [E,G,E]4 [E,G,E]2 [E,G,]2 | [E,G,E]>[E,G,E] [E,G,E]>[E,G,E] [E,G,E]>[E,G,E] [E,A,E]>[E,E] | %4
 z4 z2 [A,E]2 | [A,CE]>[A,CE] [A,CE]>[A,CE] [A,,CE]>[A,,A,] [B,,G,]>[C,A,] | %6
[M:3/4] [D,A,]4 [D,A,]2 |[M:1/4] [D,A,]2 | %8
[M:4/4] [E,A,E]>[E,A,E] [E,A,E]>[E,CE] [E,DE]>[E,DE] [E,CE]>[E,B,E] |[M:3/4] A,,6 | %10
[M:4/4] [A,,A,]>[A,,A,] [A,,A,]>[A,,A,] [A,,A,]>[A,,A,] [A,,A,]>[A,,A,] | z4 z2 (3G[K:treble]=AB | %12
 [E,B,]>[E,B,] [E,B,]>[E,B,] [E,B,]>[E,G,E] [G,B,E]>[G,B,E] | [A,E]>[A,E] [A,E]>[A,E] [A,,A,]4 | %14
 [A,,A,]>[A,,A,] [C,A,]>[E,A,] A,>[K:treble][A,_G] [A,G]>[A,G] | %15
[M:3/4][K:bass] [D,A,]>[D,A,D] [D,A,D]>[D,A,D] [D,A,D]2 |[M:1/4] [D,A,]2 | %17
[M:4/4] [E,A,E]>[E,A,E] [E,A,E]>[E,CE] [E,DE]>[E,DE] [E,CE]>[E,B,E] |[M:7/4] A,,6 z2 z2 z4 |] %19
V:3
 x8 | x8 | x8 | x8 | [A,,A,]6 z z/ B,/ | x8 |[M:3/4] x6 |[M:1/4] x2 |[M:4/4] x8 |[M:3/4] x6 | %10
[M:4/4] x8 | [E,A,E]>[E,G,E] [E,G,E]>[E,_G,E] (3[E,-=G,-E][E,G,]-[E,-G,-F] [E,G,]2[K:treble] | x8 | %13
 x8 | x11/2[K:treble] x5/2 |[M:3/4][K:bass] x6 |[M:1/4] x2 |[M:4/4] x8 |[M:7/4] x14 |] %19
V:4
 x8 | x8 | x8 | x8 | x8 | x8 |[M:3/4] x6 |[M:1/4] x2 |[M:4/4] x8 |[M:3/4] x6 | %10
[M:4/4] E>E E>E E>[CE] [Fd]>[Ec] | c>B B>=A (3:2:2z E2- E2 | G>G G>G G>B e>d | %13
 z4 (3[E=c-][Ec]-[E-Fc-] [Ec]2 | _G>G G>G G>c B>A |[M:3/4] x6 |[M:1/4] x2 |[M:4/4] x8 | %18
[M:7/4] x14 |] %19

